packages/axiom-materials/src/icon_svgs/hamburger.svg

<svg height="16" viewBox="0 0 16 16" width="16" xmlns="http://www.w3.org/2000/svg"><path d="m3 3h10v2h-10zm0 4h10v2h-10zm0 4h10v2h-10z" fill-rule="evenodd"/></svg>

<?xml version="1.0" encoding="UTF-8"?>
<svg width="16px" height="16px" viewBox="0 0 16 16" version="1.1" xmlns="http://www.w3.org/2000/svg" xmlns:xlink="http://www.w3.org/1999/xlink">
    <!-- Generator: sketchtool 43.2 (39069) - http://www.bohemiancoding.com/sketch -->
    <title>hamburger</title>
    <desc>Created with sketchtool.</desc>
    <defs></defs>
    <g id="Page-1" stroke="none" stroke-width="1" fill="none" fill-rule="evenodd">
        <g id="hamburger" fill="#000000">
            <path d="M3,3 L13,3 L13,5 L3,5 L3,3 Z M3,7 L13,7 L13,9 L3,9 L3,7 Z M3,11 L13,11 L13,13 L3,13 L3,11 Z" id="Burger-Menu"></path>
        </g>
    </g>
</svg>
